X:1
T:Sakura Sakura
C:Trad Japanese folk song (pre-1900)
S:Public domain or original as noted in notes.md
M:4/4
L:1/4
Q:1/4=56
K:Dmin
H:D minor pentatonic starter arrangement for Shakuhachi (D). Refs #1
D D F2 | D D F2 | G F G A | F2 D2 |
F G A2 | F G A2 | d c A F | G2 F2 |
D D F2 | G A c A | G F D2 | D4 |]
